X: 199
T: No_57_Calusa_Hunting_Dance_Song_(a).krn
N: Derived from No_57_Calusa_Hunting_Dance_Song_(a).krn
%%abc-version 2.0
%%abcx-abcm2ps-target-version 5.9.1 (29 Sep 2008)
%%abc-creator hum2abc beta
%%abcx-conversion-date 2019/03/15 08:38:45
%%humdrum-veritas 623187376
%%humdrum-veritas-data 1790145060
%%linebreak <none>
%%barnumbers 0
L: 1/8
M: 3/4
K: Eb clef=bass
[K:clef=bass][M:3/4]B,3E,B,2 ||  
[M:2/4]B,3E, ||  
[M:3/4]B,2z2B,B, ||  
[M:2/4]C4 | 
B,2G,2 | 
G,4 | 
B,4 | 
B,/G,3/ B,/G,3/ | 
F,4 | 
E,2B,,C, | 
B,,4 ||  
[M:3/4]G,4!fermata!G,!fermata!E, ||  
[M:2/4]E,4 | 
G,2E,E, ||  
[M:3/4]E,6 ||  
[M:2/4]E,3B,, | 
B,,3E, | 
E,4 | 
E,4 ||  
[M:3/4]G,4G,/F,3/ | 
G,4-G,F, | 
G,3/E,/E,4 ||  
[M:2/4]E,4 ||  
[M:3/4]G,2E,3D, | 
E,4-E,D, ||  
[M:2/4]E,4 | 
B,,3D, | 
E,4 | 
E,4 |]  



